X:19
T:Laudemus Virginem
C:Livre Vermeil de Montserrat (XIVème siècle)
R:Livre
Z:Transcrit et/ou corrigé par B@D - 2005-03-13
Z:Pour toute observation mailto:-@-
M:4/4
L:1/4
K:Am
V:1
FED2 |: FGA2 | cGA2 | FED2 | FGA2 | cGA2!fine!|z4 | FED2 :|
w:Lau-de-mus vir-gi-nem, Ma-ter est, Et e-ius fi-li-us Jhe-sus est. Lau-de-mus
w:Plan-ga-mus sce-le-ra A-cri-ter, Spe-ran-tes in Jhe-sum Ju-gi-ter. Plan-ga-mus 

V:2
z4 | FED2 | FGA2 | cGA2 | FED2 | FGA2 | cGA2 | z4 |
w:Lau-de-mus vir-gi-nem, Ma-ter est, Et e-ius fi-li-us Jhe-sus est.
w:Plan-ga-mus sce-le-ra A-cri-ter, Spe-ran-tes in Jhe-sum Ju-gi-ter.
V:3
z4 | z4 | FED2 | FGA2 | cGA2 | FED2 | FGA2 | cGA2 |
w:Lau-de-mus vir-gi-nem, Ma-ter est, Et e-ius fi-li-us Jhe-sus est.
w:Plan-ga-mus sce-le-ra A-cri-ter, Spe-ran-tes in Jhe-sum Ju-gi-ter.




%%header "$P0	 $IR 	$P1"
%%footer $D - Éditions Galouvielle - 2009 - À usage librement privé dans le cadre familial

